brandFactory_export/1.Light/Diamante_1Light.svg

<?xml version="1.0" encoding="UTF-8"?>
<svg width="24px" height="24px" viewBox="0 0 24 24" version="1.1" xmlns="http://www.w3.org/2000/svg" xmlns:xlink="http://www.w3.org/1999/xlink">
    <title>1.Light/Diamante_1Light</title>
    <g id="Symbols" stroke="none" stroke-width="1" fill="none" fill-rule="evenodd">
        <g id="1.Light/Diamante_1Light" fill="#5CB615" fill-rule="nonzero">
            <path d="M17.5798319,6.93445378 L19.2739496,1.71428571 L22.2722689,6.93445378 L17.5798319,6.93445378 Z M17.2605042,7.91932773 L22.1579832,7.91932773 L13.2605042,20.2722689 L17.2605042,7.91932773 Z M6.35966387,7.91932773 L10.3596639,20.2722689 L1.46218487,7.91932773 L6.35966387,7.91932773 Z M6.90084034,6.35630252 L5.15966387,0.98487395 L10.8806723,0.98487395 L6.90084034,6.35630252 L6.90084034,6.35630252 Z M12.7394958,0.98487395 L18.4638655,0.98487395 L16.7260504,6.35630252 L12.7394958,0.98487395 Z M7.70756303,6.93445378 L11.8117647,1.39831933 L15.9159664,6.93109244 L7.70756303,6.93109244 L7.70756303,6.93445378 Z M16.2151261,7.91932773 L11.8117647,21.5193277 L7.40840336,7.91932773 L16.2151261,7.91932773 Z M4.35294118,1.71092437 L6.04369748,6.93109244 L1.3512605,6.93109244 L4.35294118,1.71092437 Z M23.6201681,7.44201681 L23.6235294,7.42857143 C23.6235294,7.3512605 23.6033613,7.27394958 23.5630252,7.20672269 C23.5596639,7.20336134 23.5596639,7.19327731 23.5563025,7.18655462 L19.5764706,0.248739496 C19.5731092,0.238655462 19.5596639,0.235294118 19.5529412,0.228571429 C19.5058824,0.154621849 19.4352941,0.0941176471 19.3546218,0.0571428571 C19.3344538,0.0470588235 19.3176471,0.0302521008 19.2941176,0.0235294118 C19.2571429,0.0134453782 19.2235294,0.0168067227 19.1865546,0.0134453782 C19.1731092,0.0100840336 19.1596639,0 19.1462185,0 L4.47731092,0 C4.4605042,0 4.45042017,0.0100840336 4.43361345,0.0134453782 C4.39663866,0.0168067227 4.36302521,0.0134453782 4.32605042,0.0235294118 C4.30252101,0.0302521008 4.28571429,0.0470588235 4.26554622,0.0571428571 C4.18487395,0.0941176471 4.11428571,0.151260504 4.06722689,0.228571429 C4.0605042,0.235294118 4.05042017,0.242016807 4.04369748,0.248739496 L0.0638655462,7.18319328 C0.0605042017,7.18991597 0.0605042017,7.19663866 0.0605042017,7.20336134 C0.0235294118,7.27058824 0.00336134454,7.34789916 0,7.42521008 L0.00336134454,7.43865546 C0.00336134454,7.45210084 0.0100840336,7.46554622 0.0134453782,7.48235294 C0.0201680672,7.55294118 0.043697479,7.62016807 0.0806722689,7.67731092 C0.087394958,7.68739496 0.0840336134,7.70084034 0.0941176471,7.71092437 L11.4084034,23.4151261 C11.4285714,23.4420168 11.4621849,23.4588235 11.4857143,23.4823529 C11.5058824,23.502521 11.5260504,23.5193277 11.5462185,23.5361345 C11.6268908,23.5865546 11.7142857,23.6201681 11.8084034,23.6201681 C11.9058824,23.6201681 11.9932773,23.5865546 12.0739496,23.5361345 C12.097479,23.5193277 12.1142857,23.502521 12.1344538,23.4823529 C12.1613445,23.4588235 12.194958,23.4420168 12.2151261,23.4151261 L23.5294118,7.71092437 C23.5361345,7.70084034 23.5327731,7.6907563 23.5394958,7.67731092 C23.5764706,7.61680672 23.6,7.54957983 23.6067227,7.48235294 C23.6134454,7.46890756 23.6201681,7.45546218 23.6201681,7.44201681 L23.6201681,7.44201681 Z" id="Diamante_1Light"></path>
        </g>
    </g>
</svg>

<svg width="24" height="24" viewBox="0 0 24 24" xmlns="http://www.w3.org/2000/svg"><path d="M17.58 6.934l1.694-5.22 2.998 5.22H17.58zm-.32.985h4.898l-8.897 12.353 4-12.353zm-10.9 0l4 12.353L1.462 7.92H6.36zm.54-1.563L5.16.985h5.72L6.9 6.356zM12.74.985h5.724l-1.738 5.371L12.74.985zm-5.032 5.95l4.104-5.537 4.104 5.533H7.708v.003zm8.507.984l-4.403 13.6-4.404-13.6h8.807zM4.353 1.711l1.69 5.22H1.352l3.002-5.22zM23.62 7.442l.004-.013a.432.432 0 00-.061-.222c-.003-.004-.003-.014-.007-.02L19.576.249c-.003-.01-.016-.014-.023-.02a.468.468 0 00-.198-.172c-.02-.01-.037-.027-.06-.033-.038-.01-.071-.007-.108-.01C19.173.01 19.16 0 19.147 0H4.476c-.016 0-.027.01-.043.013-.037.004-.071 0-.108.01-.023.007-.04.024-.06.034a.446.446 0 00-.199.172c-.006.006-.017.013-.023.02L.064 7.183c-.003.007-.003.014-.003.02A.509.509 0 000 7.425l.003.014c0 .013.007.027.01.043.007.07.03.138.068.195.006.01.003.024.013.034l11.314 15.704c.02.027.054.044.078.067.02.02.04.037.06.054.08.05.168.084.262.084a.497.497 0 00.266-.084.461.461 0 00.06-.054c.027-.023.061-.04.081-.067L23.53 7.711c.007-.01.004-.02.01-.034a.466.466 0 00.068-.195.096.096 0 00.013-.04z" fill="#5CB615" fill-rule="nonzero"/></svg>
